X:1
T:Pastor Bonus, SMD
T:Pastor Bonus, SMD
T:Alfred James Caldicott (1842–1897)
T:Public Domain Courtesy of the Cyber Hymnal™
C:Alfred James Caldicott (1842–1897)
Z:Public Domain
Z:Courtesy of the Cyber Hymnal™
%%score ( 1 2 ) ( 3 4 )
L:1/8
Q:1/4=100
M:6/8
K:Ab
V:1 treble 
V:2 treble 
V:3 bass 
V:4 bass 
V:1
 [CA] | (AG)[CF] [CE]2 [DF] | ([D-G]3 [DF]2) [DE] | (AG)[CF] [CE]2 [CF] | ([D-G]3 [DF]2) [DE] | %5
 (EF)[DG] [EA]2 [Ec] | [=Ec]2 [EB] [FA]2 C | (C=D)[CE] [DG]2 [DF] | [=DF]3 E2 E | %9
 c2 [Fc] [EB]2 [Ac] | ([Ge]3 [EB]2) [Cc] | [CA]2 [FA] A2 [FA] | [Fc]3 [=EG]2 [EA] | %13
 F2 [EG] A2 [_Gc] | [Af]2 [_Ge] [Fd]2 [Ec] | [DB]2 [DF] (FG)[DA] | ([DB]3 [CA]2) |] %17
V:2
 x | C2 x4 | x6 | C2 x4 | x6 | C2 x4 | x5 C | C2 x4 | x3 E2 E | (AG) x4 | x6 | x3 (AG) x | x6 | %13
 F2 (E F) x2 | x6 | x3 D2 x | x5 |] %17
V:3
 [A,,E,] | [A,,E,]2 [A,,A,] (A,G,)[A,,F,] | ([E,-B,]3 [E,A,]2) [E,G,] | %3
 [A,,A,]2 [E,A,] A,2 [F,A,] | ([E,-B,]3 [E,A,]2) [E,G,] | A,2 [A,B,] [A,C]2 [A,C] | %6
 [G,C]2 [G,C] [F,C]2 [G,B,] | [F,A,]2 [F,A,] [B,,B,]2 [B,,A,] | [B,,A,]3 [E,G,]2 E, | %9
 [A,,E,]2 [E,A,] ([A,C][G,B,])[F,A,] | ([E,-B,]3 [E,G,]2) [=E,G,] | A,2 [D,A,] (CB,)[C,A,] | %12
 [C,-G,]3 [C,C]2 [C,B,] | [D,A,]2 [D,B,] [C,A,]2 [E,A,] | (CB,)[_A,C] [D,D]2 [F,=A,] | %15
 [B,,B,]2 [B,,A,] (A,G,)[B,,F,] | ([E,G,]3 [A,,A,]2) |] %17
V:4
 x | x3 A,,2 x | x6 | x3 (A,G,) x | x6 | A,2 x4 | x6 | x6 | x5 E, | x6 | x6 | (F,E,) C,2 x2 | x6 | %13
 x6 | =A,2 x4 | x3 B,,2 x | x5 |] %17

